X:18
T:Berkshire Heights (reel) 
B:CRE2.257 (Arda Berkshire)
F:file ID: cre.2/018berk_h
L:1/8
M:C
R:reel
Q:180
K:D
ABAF ABde|fefd (3efg dB|A2AF GFGB|AFF/E/F dFF/E/F|
ABAF ABde|fdaf efdB|ABdB ABdf|1 af (3efg fdd2:|\
[2 afeg fdd||
|:e|(3fed ad bdad|(3fed ag fedf|ebba b2ba|fbba fede|
(3fed ad bdad|dfaf (3efg dB|ABFB ABdf|1 afeg fdd:|\
[2 afeg fdd2||

%%%

